Origami/64x64/apps/rochard.svg

<svg width="64" height="64" version="1" xmlns="http://www.w3.org/2000/svg">
 <rect transform="matrix(0,-1,-1,0,0,0)" x="-61" y="-60" width="56" height="56" rx="2.8" ry="2.8" style="opacity:.2"/>
 <rect transform="matrix(0,-1,-1,0,0,0)" x="-60" y="-60" width="56" height="56" rx="2.8" ry="2.8" style="fill:#4f4f4f"/>
 <path d="m46 11c-16.554323 0-26.383404 14.16064-26 26.746094v16.253906h3 12v-3-13.300781c0-3.008402 0.98707-5.967676 2.826172-8.125 1.839101-2.157325 4.485198-3.574219 8.173828-3.574219v-2.300781-0.699219-3-3-3-1.5-1.5zm-3 3.183594v3.076172c-9.316754 1.421747-17 9.095459-17 20.439453v13.300781h-3v-13.322266-0.02344c-0.310743-10.200329 7.020916-21.89375 20-23.4707zm0 6.091797v3.02539c-3.103942 0.625135-5.644773 2.200336-7.457031 4.326172-2.366786 2.776315-3.542969 6.415214-3.542969 10.072266v13.300781h-3v-13.300781c0-9.836629 6.212479-16.095246 14-17.423828z" style="opacity:.2"/>
 <path d="m46 10c-16.554323 0-26.383404 14.16064-26 26.746094v16.253906h15v-3-13.300781c0-3.008402 0.98707-5.967676 2.826172-8.125 1.839101-2.157325 4.485198-3.574219 8.173828-3.574219zm-3 3.183594v3.076172c-9.316754 1.421747-17 9.095459-17 20.439453v13.300781h-3v-13.322266-0.02344c-0.310743-10.200329 7.020916-21.89375 20-23.4707zm0 6.091797v3.02539c-3.103942 0.625135-5.644773 2.200336-7.457031 4.326172-2.366786 2.776315-3.542969 6.415214-3.542969 10.072266v13.300781h-3v-13.300781c0-9.836629 6.212479-16.095246 14-17.423828z" style="fill:#ffba40"/>
 <path d="M 6.8007812 4 C 5.2495812 4 4 5.2495812 4 6.8007812 L 4 7.8007812 C 4 6.2495813 5.2495812 5 6.8007812 5 L 57.199219 5 C 58.750419 5 60 6.2495812 60 7.8007812 L 60 6.8007812 C 60 5.2495813 58.750419 4 57.199219 4 L 6.8007812 4 z" style="fill:#ffffff;opacity:.1"/>
</svg>

<svg xmlns="http://www.w3.org/2000/svg" width="64" height="64" version="1">
 <rect style="opacity:0.2" width="56" height="56" x="-61" y="-60" rx="2.8" ry="2.8" transform="matrix(0,-1,-1,0,0,0)"/>
 <rect style="fill:#4f4f4f" width="56" height="56" x="-60" y="-60" rx="2.8" ry="2.8" transform="matrix(0,-1,-1,0,0,0)"/>
 <path style="opacity:0.2" d="M 46,11 C 29.445677,11 19.616596,25.16064 20,37.746094 L 20,54 l 3,0 12,0 0,-3 0,-13.300781 c 0,-3.008402 0.98707,-5.967676 2.826172,-8.125 C 39.665273,27.416894 42.31137,26 46,26 L 46,23.699219 46,23 l 0,-3 0,-3 0,-3 0,-1.5 0,-1.5 z m -3,3.183594 0,3.076172 C 33.683246,18.681513 26,26.355225 26,37.699219 L 26,51 l -3,0 0,-13.322266 0,-0.02344 C 22.689257,27.453965 30.020916,15.760544 43,14.183594 Z m 0,6.091797 0,3.02539 c -3.103942,0.625135 -5.644773,2.200336 -7.457031,4.326172 C 33.176183,30.403268 32,34.042167 32,37.699219 L 32,51 29,51 29,37.699219 C 29,27.86259 35.212479,21.603973 43,20.275391 Z"/>
 <path style="fill:#ffba40" d="M 46,10 C 29.445677,10 19.616596,24.16064 20,36.746094 L 20,53 c 5,0 10,0 15,0 l 0,-3 0,-13.300781 c 0,-3.008402 0.98707,-5.967676 2.826172,-8.125 C 39.665273,26.416894 42.31137,25 46,25 Z m -3,3.183594 0,3.076172 C 33.683246,17.681513 26,25.355225 26,36.699219 L 26,50 l -3,0 0,-13.322266 0,-0.02344 c -0.310743,-10.200329 7.020916,-21.89375 20,-23.4707 z m 0,6.091797 0,3.02539 c -3.103942,0.625135 -5.644773,2.200336 -7.457031,4.326172 C 33.176183,29.403268 32,33.042167 32,36.699219 L 32,50 29,50 29,36.699219 C 29,26.86259 35.212479,20.603973 43,19.275391 Z"/>
 <path style="opacity:0.1;fill:#ffffff" d="M 6.8007812 4 C 5.2495812 4 4 5.2495812 4 6.8007812 L 4 7.8007812 C 4 6.2495813 5.2495812 5 6.8007812 5 L 57.199219 5 C 58.750419 5 60 6.2495812 60 7.8007812 L 60 6.8007812 C 60 5.2495813 58.750419 4 57.199219 4 L 6.8007812 4 z"/>
</svg>
